packages/web-icons/svgs/arrow_5_right.svg

<svg viewBox="0 0 22 37" xmlns="http://www.w3.org/2000/svg" class="ridi_icon"><path d="M3.5.5c.3 0 .6.1.9.3l16.8 16.8c.3.3.3.4.3.9 0 .3-.2.6-.3.9L4.4 36.2c-.3.3-.5.3-.9.3s-.6-.2-.9-.3L.8 34.4c-.1-.3-.3-.6-.3-.9 0-.3.1-.6.3-.9L15 18.3.8 4.4c-.2-.3-.3-.6-.3-.9 0-.3.1-.6.3-.9L2.6.8c.3-.2.6-.3.9-.3z"/></svg>

<?xml version="1.0" encoding="UTF-8"?>
<svg width="22px" height="37px" viewBox="0 0 22 37" version="1.1" xmlns="http://www.w3.org/2000/svg">
  <!-- Generator: Sketch 41.2 (35397) - http://www.bohemiancoding.com/sketch -->
  <title>arrow_5_right</title>
  <desc>Created with Sketch.</desc>
  <defs></defs>
  <g id="Page-1" stroke="none" stroke-width="1" fill="none" fill-rule="evenodd">
    <g id="arrow_5_right" fill="#000000">
      <g id="Layer_1">
        <path d="M3.5,0.5 C3.8,0.5 4.1,0.6 4.4,0.8 L21.2,17.6 C21.5,17.9 21.5,18 21.5,18.5 C21.5,18.8 21.3,19.1 21.2,19.4 L4.4,36.2 C4.1,36.5 3.9,36.5 3.5,36.5 C3.1,36.5 2.9,36.3 2.6,36.2 L0.8,34.4 C0.7,34.1 0.5,33.8 0.5,33.5 C0.5,33.2 0.6,32.9 0.8,32.6 L15,18.3 L0.8,4.4 C0.6,4.1 0.5,3.8 0.5,3.5 C0.5,3.2 0.6,2.9 0.8,2.6 L2.6,0.8 C2.9,0.6 3.2,0.5 3.5,0.5 L3.5,0.5 Z" id="Shape"></path>
      </g>
    </g>
  </g>
</svg>
